X: 27455
T: Molly Eamonn Mor
R: reel
M: 4/4
K: Eminor
|:f|eB (3BBB GBEF|GFGA Bedc|dF (3FFF DFAd|fbaf g2fg|
eB (3BBB GBEF|GFGA Bedc|dfaf gfeg|fbaf gee:|
|:f|gB (3BBB GBef|gfgb afge|fd (3ded AdFG|ADFA defa|
ge (3eee Beef|gfga bgag|fdAd fgaf|gfed Bee:|

